X:1
T:Hymn to Diana
T:C Hubert H Parry (1848 - 1918) 
T:Ben Jonson (1573–1637) 
T:Hymn to Diana
C:C Hubert H Parry
C:(1848 - 1918)
C:
Z:Ben Jonson
Z:(1573–1637)
Z:
%%score [ 1 2 3 ] { ( 4 7 ) | ( 5 6 ) }
L:1/8
M:3/4
K:Eb
V:1 treble nm="Soprano" snm="S."
V:2 treble nm="Soprano" snm="S."
V:3 treble nm="Alto" snm="A."
V:4 treble nm="Piano" snm="Pno."
V:7 treble 
V:5 treble 
V:6 treble 
V:1
"^Soprano 1""^Moderato" z2!mf! z2 B>B | B2 G2 B>B | e4 dc |!<(! B3 B!<)! (3(dc)B | %4
w: Queen and|Hun- tress, chaste and|fair, Now the|sun is laid _ to|
!>(! (A2 G2)!>)! z2 | G2 E2 GG | c>G c4 | B=A GA d>c | B6 |!p! B>B B2"^cresc." _G2 | _d>B d4 | %11
w: sleep, _|Sea- ted on thy|sil- ver chair|State in won- ted man- ner|keep:|Hes- pe- rus en-|treats thy light,|
!<(! =d>d d2 B2 | f>d!<)! f2 z2 |!f! g4 e3/2 z/ | e4 c3/2 z/ |!>(! c3 B AF!>)! | E4 !fermata!z2 | %17
w: Hes- pe- rus en-|treats thy light|God- dess,|God- dess,|Ex- cel- lent- ly|bright.|
 B3 G GB | e>B e2 dc |!<(! B3 B!<)! (3(dc)B |!>(! (A2 G2)!>)! z2 | G3 E EG | c>G c4 | B=A GA d>c | %24
w: Earth, let not thy|en- vious shade dare it-|self to in- * ter-|pose; _|Cyn- thia's shi- ning|Orb was made|Heaven to clear when day did|
 B4 z2 | B3 _G GB | _d>B d3 z | =d3 B B!<(!d | f>d (f2!<)! ^f2) |!f! g4 e3/2 z/ | e4 c3/2 z/ | %31
w: close:|Bless us then with|wi- shed sight,|Bless us then with|wi- shed sight _|God- dess,|God- dess,|
!>(! c3 B AF!>)! | E4 !fermata!z2 |!f! B3 G GB | e>c e2 dc | fd B2 A2 | A2 G2 z2 | G3 E Gc | %38
w: Ex- cel- lent- ly|bright.|Lay thy bow of|pearl a- part And thy|cry- stal shi- ning|qui- ver;|Give un- to the|
 c>=B B2 ed |"^rit." (ce g)f e>!>(!c | c2!>)! B2 z2 |"^p    cresc""^a tempo" B3 A _GB | %42
w: fly- ing hart Space to|breathe _ _ how short so|e- ver.|Thou that mak'st a|
 _d>_c B2 z2 | =d3 c Bd | f>e d3 z |!ff! g4 e3/2 z/ | e4 c3/2 z/ | %47
w: day of night,|Thou that mak'st a|day of night|God- dess,|God- dess,|
[M:4/4]"^Adagio" e3!<(! B A2!<)! B2 | !fermata!B8 |] %49
w: Ex- cel- lent- ly|bright.|
V:2
"^Soprano 2" z2!mf! z2 A>A | G2 E2 G>G | B4 AA |!<(! A3 A!<)! (3:2:2A2 F |!>(! (F2 E2)!>)! z2 | %5
w: Queen and|Hun- tress, chaste and|fair, Now the|sun is laid to|sleep, _|
 E2 C2 EE | G>E G4 | FF FF G>=A | B6 |!p! _G>G"^cresc." G2 _D2 | B>_G B4 |!<(! B>B B2 F2 | %12
w: Sea- ted on thy|sil- ver chair|State in won- ted man- ner|keep:|Hes- pe- rus en-|treats thy light,|Hes- per- rus en-|
 d>B!<)! d2 z2 |!f! e4 B3/2 z/ | c4 A3/2 z/ |!>(! F3 F ED!>)! | E4 !fermata!z2 | G3 E EG | %18
w: treats thy light|God- dess,|God- dess,|Ex- cel- lent- ly|bright.|Earth, let not thy|
 B>G B2 AA |!<(! A3 A!<)! (3:2:2A2 F |!>(! (F2 E2)!>)! z2 | E3 C CE | G>E (G2 _G2) | FF FF G=A | %24
w: en- vious shade dare it-|self to in- ter-|pose; _|Cyn- thia's shi- ning|Orb was made _|Heaven to clear when day did|
 B4 z2 | _G3 _D DG | B>_G B3 z | B3 F F!<(!B | d>B!<)! d4 |!f! e4 B3/2 z/ | c4 A3/2 z/ | %31
w: close:|Bless us then with|wi- shed sight,|Bless us then with|wi- shed sight|God- dess,|God- dess,|
!>(! F3 F ED!>)! | E4 !fermata!z2 |!f! G3 E EG | B>G c2 =AA | _AA G2 F2 | F2 E2 z2 | E3 C EG | %38
w: Ex- cel- lent- ly|bright.|Lay thy bow of|pearl a- part And thy|cry- stal shi- ning|qui- ver;|Give un- to the|
 G>G G2 =BB |"^rit." (c2 e)d B>!>(!=A | =A2!>)! B2"^p    cresc" z2 |"^a tempo" _G3 G GG | %42
w: fly- ing hart Space to|breathe _ how short so|e- ver.|Thou that mak'st a|
 _G>A G3 z | B3 F FB | B>c B3 z |!ff! e4 B3/2 z/ | c4 A3/2 z/ | %47
w: day of night,|Thou that mak'st a|day of night|God- dess,|God- dess,|
[M:4/4]"^Adagio" G3!<(! G E2!<)! F2 | !fermata!G8 |] %49
w: Ex- cel- lent- ly|bright.|
V:3
"^Contralto" z2!mf! z2 D>D | E2 B,2 E>E | G4 FE |!<(! D3 D!<)! (3(FE)D |!>(! (D2 E2)!>)! z2 | %5
w: Queen and|Hun- tress, chaste and|fair, Now the|sun is laid _ to|sleep, _|
 C2 C2 CC | E>C E4 | DC B,C F>E | D6 |!p! _D>D"^cresc." D2 B,2 | _G>_D G4 |!<(! F>F F2 D2 | %12
w: Sea- ted on thy|sil- ver chair|State in won- ted man- ner|keep:|Hes- pe- rus en-|treats thy light,|Hes- pe- rus en-|
 B>F!<)! B2 z2 |!f! B4 G3/2 z/ | A4 E3/2 z/ |!>(! E3 D CD!>)! | E4 z2 | E3 B, B,E | G>E G2 FE | %19
w: treats thy light|God- dess,|God- dess,|Ex- cel- lent- ly|bright.|Earth, let~~~ not thy|en- vious shade dare it-|
!<(! D3 D!<)! (3(FE)D |!>(! (D2 E2)!>)! z2 | C3 C CC | E>C E4 | DC B,C F>E | D4 z2 | _D3 _B, B,D | %26
w: self to in- * ter-|pose: _|Cyn- thia's shi- ning|Orb was made|Heaven to clear when day did|close:|Bless us then with|
 _G>_D G3 z | F3 D D!<(!F | B>F!<)! B4 |!f! B4 G3/2 z/ | A4 E3/2 z/ |!>(! E3 D CD!>)! | E4 z2 | %33
w: wi- shed sight,|Bless us then with|wi- shed sight|God- dess,|God- dess,|Ex- cel- lent- ly|bright.|
!f! E3 B, B,E | G>E G2 FE | DF B2 D2 | D2 E2 z2 | C3 C CE | E>D D2 GF |"^rit." (EG =A)B G!>(!F | %40
w: Lay thy bow of|pearl a- part And thy|cry- stal shi- ning|qui- ver;|Give un- to the|fly- ing hart Space to|breathe _ _ how short so|
 E2!>)! D2 z2 |"^p    cresc""^a tempo" _D3 _C B,D | E>F _G3 z | F3 E DF | G>=A B3 z | %45
w: e- ver.|Thou that mak'st a|day of night,|Thou that mak'st a|day of night|
!ff! E4 G3/2 z/ | A4 A,3/2 z/ |[M:4/4]"^Adagio" B,3!<(! E C2!<)! D2 | !fermata!E8 |] %49
w: God- dess,|God- dess,|Ex- cel- lent- ly|bright.|
V:4
 z2!mf! z2 [AB]>[AB] | [GB]2 G2 [GB]>[GB] | [Be]4 dc |!<(! B3 B!<)! (3dcB |!>(! (A2 G2)!>)! z2 | %5
 [EG]2 E2 [EG][EG] | [Gc]>G [Gc]4 | [FB][F=A] [FG][FA] [Gd]>[Ac] | B6 | %9
!p! [_GB]>[GB]"^cresc." [GB]2 G2 | [B_d]>B [Bd]4 |!<(! [B=d]>[Bd] [Bd]2 B2 | [df]>d!<)! [df]2 z2 | %13
 [eg]4 e3/2 z/ | [ce]4 c3/2 z/ |!>(! c3 B AF!>)! | E4 !fermata!z2 | [GB]3 G G[GB] | %18
 [Be]>B [Be]2 dc |!<(! B3 B!<)! (3dcB |!>(! (A2 G2)!>)! z2 | [EG]3 E E[EG] | [Gc]>G c4 | %23
 [FB][F=A] [FG][FA] d>c | B4 z2 | [_GB]3 G G[GB] | [B_d]>B [Bd]4 |!<(! [B=d]3 B B[Bd] | %28
 [df]>d!<)! (f2 ^f2) |!f! [eg]4 e3/2 z/ | [ce]4 c3/2 z/ |!>(! c3 B AF!>)! | E4 !fermata!z2 | %33
 [GB]3 G G[GB] | [Be]>c [ce]2 dc | fd B2 A2 | A2 G2 z2 | [EG]3 E [EG][Gc] | %38
 [Gc]>[G=B] [GB]2 [Be][Bd] | ce [eg][df] [Be]>[=Ac] | [=Ac]2 B2 z2 |"^a tempo" [_GB]3 [GA] G[GB] | %42
 [_G_d]>[A_c] B2 z2 | [B=d]3 c B[Bd] | [Bf]>[ce] d3 z |!ff! [eg]4 [Be]3/2 z/ | [ce]4 [Ac]3/2 z/ | %47
[M:4/4]"^Adagio" [Ge]3 [GB] A2 B2 | !fermata!B8 |] %49
V:5
"^(forpractice only)""^Piano" z2 z2 D>D | E2 [B,E]2 E>E | G4 [FA][EA] | [DA]3 [DA] (3:2:2A2 F | %4
 [DF]2 E2 z2 | C2 C2 CC | E>[CE] E4 | DC B,C F>E | D6 | _D>D D2 [B,D]2 | _G>[_DG] G4 | %11
 F>F F2 [DF]2 | B>[FB] B2 z2 |!f! B4 [GB]3/2 z/ | A4 [EA]3/2 z/ | [EF]3 [DF] [CE]D | E4 z2 | %17
 E3 [B,E] [B,E]E | G>[EG] G2 [FA][EA] | [DA]3 [DA] (3:2:2A2 F | [DF]2 E2 z2 | C3 C CC | E>[CE] E4 | %23
 DC B,C F>E | D4 z2 | _D3 [B,D] [B,D]D | _G>[_DG] G4 | F3 [DF] [DF]F | B>[FB] B4 | B4 [GB]3/2 z/ | %30
 A4 [EA]3/2 z/ | [EF]3 [DF] [CE]D | E4 z2 |!f! E3 [B,E] [B,E]E | G>[EG] G2 [F=A][EA] | %35
 [DA][FA] G2 [DF]2 | [DF]2 E2 z2 | C3 C CE | E>D D2 GF |"^rit." EG =AB G!>(!F | E2!>)! D2 z2 | %41
"^p    cresc" _D3 _C B,D | E>F _G2 z2 | F3 [EF] [DF]F | G>=A B3 z | E4 G3/2 z/ | A4 A,3/2 z/ | %47
[M:4/4] B,3!<(! E [CE]2!<)! [DF]2 | !fermata![EG]8 |] %49
V:6
 x6 | x6 | x6 | x4 (3FED | x6 | x6 | x6 | x6 | x6 | x6 | x6 | x6 | x6 | x6 | x6 | x6 | x6 | x6 | %18
 x6 | x4 (3FED | x6 | x6 | x6 | x6 | x6 | x6 | x6 | x6 | x6 | x6 | x6 | x6 | x6 | x6 | x6 | x4 x2 | %36
 x6 | x6 | x6 | x6 | x6 | x6 | x6 | x6 | x6 | x6 | x6 |[M:4/4] x8 | x8 |] %49
V:7
 x6 | x6 | x6 | x6 | x6 | x6 | x6 | x6 | x6 | x6 | x6 | x6 | x6 | x6 | x6 | x6 | x6 | x6 | x6 | %19
 x6 | x6 | x6 | x2 (G2 _G2) | x4 G=A | x6 | x6 | x6 | x6 | x2 d4 | x6 | x6 | x6 | x6 | x6 | x6 | %35
 x6 | x6 | x6 | x6 | x6 | x6 | x6 | x6 | x6 | x6 | x6 | x6 |[M:4/4] x8 | x8 |] %49

